X:311
T:New Castle Hornpipe. JaW.311
T:Kirkgate Hp,aka. Jaw.311
M:C|
L:1/8
Q:1/2=90
S:James Winder Ms, Lancashire, 1835-41
R:.Hornpipe
O:England
A:Wyresdale,Lancashire
Z:vmp.Chris Partington, Aug 2004
K:G
“_Key D in MS”dc|B2B2 BcAF|G2G2G2FG|BGBd edcB|AcGB GFED|!
B2B2Bdce|d2d2d2ed|cBAG FGEF|D2D2D2:|!
|:AB|c2c2c2AB|cBAG|GFED|GFGA BGBd|ecAG GFED|!
e2e2egfg|dBge dBGB|cdec BGAF|d2ddd2:|

